X:1
T:Title
%%score ( 1 2 ) { 3 | 4 }
L:1/8
Q:1/4=100
M:4/4
K:F
V:1 treble nm="Grand Piano, Soprano"
V:2 treble 
V:3 treble nm="Choir Pad, Varanasi, 12.9.12.9 D"
V:4 bass 
V:1
 F[FG] [FA]2 [FA][FA] [Ac]2 | [GB][FA][FA][EG] [EG][_E^F] [=EG]2 | %2
w: By~William~Warren~Bentley,~1871 * * * * *||
 [FA][FB] [Fc]2 [Fd][Fc][Ac][Bd] | [Ac]>[FA] [EG]6 | F[FG] [FA]2 [FA][FA] [Ac]2 | %5
w: |||
 [GB][FA][FA][EG] [EG][_E^F] [=EG]2 | [FA][FB] [Fc]2 [FB][FA]GB | [FA][EG] F6 | %8
w: |||
 [Fc][Fc] [Fd]2 [Fd][Fd] [Fd]2 | [Fd][Fd] [Fc]2 [Fc][Fd] [Fc]2 | [GB][FA] [EG]2 [EG][EG] [EG]2 | %11
w: |||
 [Ec][GB] [FA]6 | F[FG] [FA]2 [FA][FA] [Ac]2 | [GB][FA][FA][EG] [EG][_E^F] [=EG]2 | %14
w: |||
 [FA][FB] [Fc]2 [Fd][GB] [FA]2 | [EA][EG] F6- | F2 z2 z4 |] %17
w: |||
V:2
 x8 | x8 | x8 | x8 | x8 | x8 | z4 z2 F2 | x8 | x8 | x8 | x8 | x8 | x8 | x8 | x8 | x8 | x8 |] %17
V:3
 A,B, C2 CC C2 | CC C2 CC C2 | F,G, A,2 B,A,[K:treble]CF | F>C C6 | A,B, C2 CC C2 | CC C2 CC C2 | %6
 F,G, A,2 DC D2 | CB, A,6 | A,A, B,2 B,B, B,2 | B,B, A,2 A,B, A,2 | CC C2 CC C2 | CC C6 | %12
 A,B, C2 CC C2 | CC C2 CC C2 | F,G, A,2 B,D C2 | CB, A,6- | A,2 z2 z4 |] %17
V:4
 F,F, F,2 F,F, F,2 | E,F, C,2 C,C, C,2 | z F, F,2 F,F, F,2 | F,>F, C,6 | F,F, F,2 F,F, F,2 | %5
 E,F, C,2 C,C, C,2 | z F, F,2 F,F, B,,2 | C,C, F,6 | F,F, B,,2 B,,B,, B,,2 | B,,B,, F,2 F,F, F,2 | %10
 E,F, C,2 C,C, C,2 | C,C, F,6 | F,F, F,2 F,F, F,2 | E,E, C,2 C,C, C,2 | z F, F,2 B,,B,, C,2 | %15
 C,C, F,6- | F,2 z2 z4 |] %17

